!!!OTL: Arnold von Winkelried.
!!!OTL-incipit: DEN EDELSTEN RITTER
!!!COM: B. Klein
!!!ARE: Europa, Mitteleuropa, Deutschland
!!!SCT: F0897
!!!TXL: @@DE
!!!YEM: Copyright 1995, estate of Helmut Schaffrath.
**kern	**text
*ICvox	*
*M4/4	*
*met(c)	*
*k[f#]	*
*G:	*
!LO:TX:a:t=Haler Chor.	!
!LO:TX:a:t=Ziemlich schell, doch mit Ausdruck.	!
!LO:TX:a:t=Für gemiſchten Chor.	!
{4g	1._Den
=1	=1
4g	e-
8g	-del-
8a	-ſten
4b/	Rit-
8a	-ter
8b/	der
=2	=2
4cc/	ta-
8b/	-pfer-
8a	-ſten
4b/}	Ʒeit,
{4b/	den
=3	=3
4b/	hat
8b/	un-
8cc/	-ſer
4dd/	Länd-
8cc/	-chen
8b/	ge-
=4	=4
4a	-bo-
4g	-ren;
4r}	.
{4g	und
=5	=5
4g	wär
8g	ihm
8a	kein
4b/	bild-
8a	-li-
8b/	-ches
=6	=6
4cc/	Denk-
8b/	-mal
8a	ge-
4b/}	-weiht,
{4b/	ſein
=7	=7
4b/	Na-
8b/	-me
8cc/	ging'
4dd/	nim-
8cc/	-mer
8b/	ver-
=8	=8
4a	-lo-
4g	-ren.
4r}	.
{4b/	Er
=9	=9
4b/	ſuch-
8b/	-te
8a	als
(8gL	Rit-
8f#J)	.
8g	-ter
8a	den
=10	=10
4b/	Tod
8b/	in
8a	der
4g}	Schlacht;
{4b/	ſein
=11	=11
4dd/	Feld-
8dd/	-ruf,
8cc/	der
(8bL	hat
8aJ)	.
8b/	uns
8cc/	die
=12	=12
4dd/	Frei-
8dd/	-heit
8cc/	ge-
4b/}	-bracht:
{4b/	"Jch
=13	=13
2b/	ma-
4g	-che
4f#	dem
=14	=14
2e}	Volk
{4f#	ei-
4g	-ne
=15	=15
(4a\	Gaſ-
4f#\	.
4e\	.
4a\)	.
=16	=16
2a	-ſe!"
4r;}	.
!LO:TX:a:t=Ganzer Chor.	!
{4b/	Es
=17	=17
2b/	ſoll
4b/	ihn
4b/	be-
=18	=18
2cc/	-ſin-
4b/}	-gen
{4b/	das
=19	=19
(4a	feu-
4g)	.
4cc/	-rig-
4b/	-ſie
=20	=20
2.a}	Lied,
{4a	der
=21	=21
2cc/	Rit-
4a	-ter
4a	heißt
=22	=22
2dd/	Ar-
4g}	-nold
{4a	von
=23	=23
2b/	Win-
2a	-kel-
=24	=24
2g;	-ried.
4r}	.
==	==
!!!AGN: erzaehlendes Volks - Lied, Ballade, Ritter
!!!ONB: ESAC (Essen Associative Code) Database: FINK
!!!AMT: simple quadruple
!!!AIN: vox
!!!EED: Helmut Schaffrath
!!!EEV: 1.0
!!Text: L. Widmer
!!!GTL: Romanzen und Balladen.
!!!source: Musikalischer Hausschatz der Deutschen. Eine Sammlung von über 1000 Liedern und Gesängen mit Singstimmen und Klavierbegleitung. Leipzig, Litterarisches Verlags-Haus.
!!!page: 648
!!!ENC: Anna Maria Matuszewska
!!!EEV: 2025/03/19
*-	*-
